Numix-Square/48x48/apps/cpuinfo.svg

<svg xmlns="http://www.w3.org/2000/svg" xmlns:xlink="http://www.w3.org/1999/xlink" width="48" viewBox="0 0 13.546667 13.546667" height="48">
 <defs>
  <linearGradient id="0">
   <stop stop-color="#b58900"/>
   <stop offset="1" stop-color="#f2b700"/>
  </linearGradient>
  <linearGradient xlink:href="#0" id="1" gradientUnits="userSpaceOnUse" gradientTransform="matrix(0.28222223,0,0,0.28222223,0,-283.45334)" y1="1050.36" x2="0" y2="1006.36"/>
 </defs>
 <g transform="matrix(0.28222223,0,0,0.28222223,0,-283.45334)">
  <path transform="translate(0,1004.3622)" d="M 5.1875,1 C 2.8707723,1 1,2.8707723 1,5.1875 l 0,37.625 C 1,45.129228 2.8707723,47 5.1875,47 l 37.625,0 C 45.129228,47 47,45.129228 47,42.8125 L 47,5.1875 C 47,2.8707723 45.129228,1 42.8125,1 L 5.1875,1 z m 0.1875,0.25 37.25,0 c 2.291546,0 4.125,1.8334541 4.125,4.125 l 0,37.25 c 0,2.291546 -1.833454,4.125 -4.125,4.125 l -37.25,0 C 3.0834541,46.75 1.25,44.916546 1.25,42.625 l 0,-37.25 C 1.25,3.0834541 3.0834541,1.25 5.375,1.25 z" opacity="0.05"/>
  <path transform="translate(0,1004.3622)" d="M 5.375,1.25 C 3.0834541,1.25 1.25,3.0834541 1.25,5.375 l 0,37.25 c 0,2.291546 1.8334541,4.125 4.125,4.125 l 37.25,0 c 2.291546,0 4.125,-1.833454 4.125,-4.125 l 0,-37.25 C 46.75,3.0834541 44.916546,1.25 42.625,1.25 l -37.25,0 z m 0.21875,0.25 36.8125,0 C 44.672614,1.5 46.5,3.3273859 46.5,5.59375 l 0,36.8125 C 46.5,44.672614 44.672614,46.5 42.40625,46.5 l -36.8125,0 C 3.3273859,46.5 1.5,44.672614 1.5,42.40625 l 0,-36.8125 C 1.5,3.3273859 3.3273859,1.5 5.59375,1.5 z" opacity="0.1"/>
  <path transform="translate(0,1004.3622)" d="M 5.59375,1.5 C 3.3273859,1.5 1.5,3.3273859 1.5,5.59375 l 0,36.8125 C 1.5,44.672614 3.3273859,46.5 5.59375,46.5 l 36.8125,0 C 44.672614,46.5 46.5,44.672614 46.5,42.40625 l 0,-36.8125 C 46.5,3.3273859 44.672614,1.5 42.40625,1.5 l -36.8125,0 z m 0.09375,0.125 36.625,0 c 2.253773,0 4.0625,1.8087269 4.0625,4.0625 l 0,36.625 c 0,2.253773 -1.808727,4.0625 -4.0625,4.0625 l -36.625,0 c -2.2537731,0 -4.0625,-1.808727 -4.0625,-4.0625 l 0,-36.625 C 1.625,3.4337269 3.4337269,1.625 5.6875,1.625 z" opacity="0.2"/>
  <path transform="translate(0,1004.3622)" d="M 5.6875,1.625 C 3.4337269,1.625 1.625,3.4337269 1.625,5.6875 l 0,36.625 c 0,2.253773 1.8087269,4.0625 4.0625,4.0625 l 36.625,0 c 2.253773,0 4.0625,-1.808727 4.0625,-4.0625 l 0,-36.625 c 0,-2.2537731 -1.808727,-4.0625 -4.0625,-4.0625 l -36.625,0 z m 0.09375,0.125 36.4375,0 c 2.241182,0 4.03125,1.7900679 4.03125,4.03125 l 0,36.4375 c 0,2.241182 -1.790068,4.03125 -4.03125,4.03125 l -36.4375,0 C 3.5400679,46.25 1.75,44.459932 1.75,42.21875 l 0,-36.4375 C 1.75,3.5400679 3.5400679,1.75 5.78125,1.75 z" opacity="0.3"/>
  <path transform="translate(0,1004.3622)" d="M 5.78125,1.75 C 3.5400679,1.75 1.75,3.5400679 1.75,5.78125 l 0,36.4375 c 0,2.241182 1.7900679,4.03125 4.03125,4.03125 l 36.4375,0 c 2.241182,0 4.03125,-1.790068 4.03125,-4.03125 l 0,-36.4375 C 46.25,3.5400679 44.459932,1.75 42.21875,1.75 l -36.4375,0 z m 0.125,0.125 36.1875,0 c 2.228591,0 4.03125,1.802659 4.03125,4.03125 l 0,36.1875 c 0,2.228591 -1.802659,4.03125 -4.03125,4.03125 l -36.1875,0 C 3.677659,46.125 1.875,44.322341 1.875,42.09375 l 0,-36.1875 C 1.875,3.677659 3.677659,1.875 5.90625,1.875 z" opacity="0.4"/>
  <rect width="44.25" height="44.25" x="1.875" y="1006.24" rx="4.02" opacity="0.5"/>
 </g>
 <rect width="12.418" height="12.418" x="0.564" y="0.564" rx="1.129" fill="url(#1)"/>
 <g transform="translate(3.8858025e-4,-3.9513112e-4)" fill="#f2f2f2">
  <g>
   <path transform="matrix(0.28222223,0,0,0.28222223,-3.8860025e-4,3.9511112e-4)" d="M 19.875,9 C 19.384252,9 19,9.384252 19,9.875 L 19,13 17.34375,13 c -2.39803,0 -4.3125,1.91447 -4.3125,4.3125 l 0,0.6875 L 9.875,18 C 9.384252,18 9,18.384252 9,18.875 l 0,0.25 C 9,19.615748 9.384252,20 9.875,20 l 3.15625,0 0,2 L 9.875,22 C 9.384252,22 9,22.384252 9,22.875 l 0,0.25 C 9,23.615748 9.384252,24 9.875,24 l 3.15625,0 0,2 L 9.875,26 C 9.384252,26 9,26.384252 9,26.875 l 0,0.25 C 9,27.615748 9.384252,28 9.875,28 l 3.15625,0 0,2.6875 c 0,2.39803 1.91447,4.3125 4.3125,4.3125 L 19,35 19,38.125 C 19,38.615748 19.384252,39 19.875,39 l 0.25,0 C 20.615748,39 21,38.615748 21,38.125 L 21,35 l 2,0 0,3.125 C 23,38.615748 23.384252,39 23.875,39 l 0.25,0 C 24.615748,39 25,38.615748 25,38.125 L 25,35 l 2,0 0,3.125 C 27,38.615748 27.384252,39 27.875,39 l 0.25,0 C 28.615748,39 29,38.615748 29,38.125 L 29,35 30.6875,35 C 33.08553,35 35,33.08553 35,30.6875 L 35,28 38.125,28 C 38.615748,28 39,27.615748 39,27.125 l 0,-0.25 C 39,26.384252 38.615748,26 38.125,26 L 35,26 l 0,-2 3.125,0 C 38.615748,24 39,23.615748 39,23.125 l 0,-0.25 C 39,22.384252 38.615748,22 38.125,22 L 35,22 l 0,-2 3.125,0 C 38.615748,20 39,19.615748 39,19.125 l 0,-0.25 C 39,18.384252 38.615748,18 38.125,18 L 35,18 35,17.3125 C 35,14.91447 33.08553,13 30.6875,13 L 29,13 29,9.875 C 29,9.384252 28.615748,9 28.125,9 l -0.25,0 C 27.384252,9 27,9.384252 27,9.875 L 27,13 25,13 25,9.875 C 25,9.384252 24.615748,9 24.125,9 l -0.25,0 C 23.384252,9 23,9.384252 23,9.875 L 23,13 21,13 21,9.875 C 21,9.384252 20.615748,9 20.125,9 l -0.25,0 z m -1.34375,6 10.9375,0 C 31.43056,15 33,16.56944 33,18.53125 l 0,10.9375 C 33,31.43056 31.43056,33 29.46875,33 l -10.9375,0 c -1.96181,0 -3.5,-1.56944 -3.5,-3.53125 l 0,-10.9375 c 0,-1.96181 1.53819,-3.53125 3.5,-3.53125 z"/>
   <path d="m 5.576686,4.798173 c -0.4305552,0 -0.774531,0.3439758 -0.774531,0.774531 l 0,2.39899 c 0,0.4305552 0.3439758,0.774531 0.774531,0.774531 l 2.39899,0 c 0.4305552,0 0.774531,-0.3439758 0.774531,-0.774531 l 0,-2.39899 c 0,-0.4305552 -0.3439758,-0.774531 -0.774531,-0.774531 l -2.39899,0 z"/>
  </g>
 </g>
</svg>

<svg viewBox="0 0 48 48"><defs><linearGradient id="linearGradient3764" x1="1" x2="47" gradientUnits="userSpaceOnUse" gradientTransform="translate(-47.997785,0.00221467)"><stop stop-color="#dea700" stop-opacity="1"/><stop offset="1" stop-color="#f2b700" stop-opacity="1"/></linearGradient><clipPath id="clipPath-062067713"><g transform="translate(0,-1004.3622)"><rect rx="4" y="1005.36" x="1" height="46" width="46" fill="#1890d0"/></g></clipPath><clipPath id="clipPath-073467855"><g transform="translate(0,-1004.3622)"><rect rx="4" y="1005.36" x="1" height="46" width="46" fill="#1890d0"/></g></clipPath></defs><g><g transform="translate(0,-1004.3622)"><path d="m 5 1006.36 c -2.216 0 -4 1.784 -4 4 l 0 37.25 c 0 2.216 1.784 4 4 4 l 38 0 c 2.216 0 4 -1.784 4 -4 l 0 -37.25 c 0 -2.216 -1.784 -4 -4 -4 l -38 0 z m -4 41.5 0 0.5 c 0 2.216 1.784 4 4 4 l 38 0 c 2.216 0 4 -1.784 4 -4 l 0 -0.5 c 0 2.216 -1.784 4 -4 4 l -38 0 c -2.216 0 -4 -1.784 -4 -4 z" opacity="0.02"/><path d="m 1 1047.61 0 0.25 c 0 2.216 1.784 4 4 4 l 38 0 c 2.216 0 4 -1.784 4 -4 l 0 -0.25 c 0 2.216 -1.784 4 -4 4 l -38 0 c -2.216 0 -4 -1.784 -4 -4 z" opacity="0.05"/><rect width="46" height="46" x="1" y="1005.61" rx="4" opacity="0.1"/></g></g><g><rect width="46" height="46" x="-46.998" y="1" rx="4" transform="matrix(0,-1,1,0,0,0)" fill="url(#linearGradient3764)" fill-opacity="1"/></g><g/><g><g clip-path="url(#clipPath-062067713)"><g opacity="0.1"><!-- color: #f2b700 --><g><path d="m 19.875 9 c -0.492 0 -0.875 0.383 -0.875 0.875 l 0 3.125 l -1.656 0 c -2.398 0 -4.313 1.914 -4.313 4.313 l 0 0.688 l -3.156 0 c -0.492 0 -0.875 0.387 -0.875 0.875 l 0 0.25 c 0 0.492 0.383 0.875 0.875 0.875 l 3.156 0 l 0 2 l -3.156 0 c -0.492 0 -0.875 0.387 -0.875 0.875 l 0 0.25 c 0 0.492 0.383 0.875 0.875 0.875 l 3.156 0 l 0 2 l -3.156 0 c -0.492 0 -0.875 0.387 -0.875 0.875 l 0 0.25 c 0 0.492 0.383 0.875 0.875 0.875 l 3.156 0 l 0 2.688 c 0 2.398 1.914 4.316 4.313 4.316 l 1.656 0 l 0 3.125 c 0 0.488 0.383 0.875 0.875 0.875 l 0.25 0 c 0.492 0 0.875 -0.387 0.875 -0.875 l 0 -3.125 l 2 0 l 0 3.125 c 0 0.488 0.383 0.875 0.875 0.875 l 0.25 0 c 0.492 0 0.875 -0.387 0.875 -0.875 l 0 -3.125 l 2 0 l 0 3.125 c 0 0.488 0.383 0.875 0.875 0.875 l 0.25 0 c 0.492 0 0.875 -0.387 0.875 -0.875 l 0 -3.125 l 1.688 0 c 2.398 0 4.313 -1.914 4.313 -4.316 l 0 -2.688 l 3.125 0 c 0.492 0 0.875 -0.383 0.875 -0.875 l 0 -0.25 c 0 -0.488 -0.383 -0.875 -0.875 -0.875 l -3.125 0 l 0 -2 l 3.125 0 c 0.492 0 0.875 -0.383 0.875 -0.875 l 0 -0.25 c 0 -0.488 -0.383 -0.875 -0.875 -0.875 l -3.125 0 l 0 -2 l 3.125 0 c 0.492 0 0.875 -0.383 0.875 -0.875 l 0 -0.25 c 0 -0.488 -0.383 -0.875 -0.875 -0.875 l -3.125 0 l 0 -0.688 c 0 -2.398 -1.914 -4.313 -4.313 -4.313 l -1.688 0 l 0 -3.125 c 0 -0.492 -0.383 -0.875 -0.875 -0.875 l -0.25 0 c -0.492 0 -0.875 0.383 -0.875 0.875 l 0 3.125 l -2 0 l 0 -3.125 c 0 -0.492 -0.383 -0.875 -0.875 -0.875 l -0.25 0 c -0.492 0 -0.875 0.383 -0.875 0.875 l 0 3.125 l -2 0 l 0 -3.125 c 0 -0.492 -0.383 -0.875 -0.875 -0.875 m -1.594 6 l 10.938 0 c 1.961 0 3.531 1.57 3.531 3.531 l 0 10.938 c 0 1.961 -1.57 3.531 -3.531 3.531 l -10.938 0 c -1.961 0 -3.5 -1.57 -3.5 -3.531 l 0 -10.938 c 0 -1.961 1.539 -3.531 3.5 -3.531 m 0 0" stroke="none" fill-rule="nonzero" fill-opacity="1" fill="#000"/><path d="m 19.762 17 c -1.527 0 -2.746 1.219 -2.746 2.746 l 0 8.5 c 0 1.527 1.219 2.746 2.746 2.746 l 8.5 0 c 1.527 0 2.746 -1.219 2.746 -2.746 l 0 -8.5 c 0 -1.527 -1.219 -2.746 -2.746 -2.746 m -8.5 0" stroke="none" fill-rule="nonzero" fill-opacity="1" fill="#000"/></g></g></g></g><g><g clip-path="url(#clipPath-073467855)"><g transform="translate(0,-1)"><!-- color: #f2b700 --><g><path d="m 19.875 9 c -0.492 0 -0.875 0.383 -0.875 0.875 l 0 3.125 l -1.656 0 c -2.398 0 -4.313 1.914 -4.313 4.313 l 0 0.688 l -3.156 0 c -0.492 0 -0.875 0.387 -0.875 0.875 l 0 0.25 c 0 0.492 0.383 0.875 0.875 0.875 l 3.156 0 l 0 2 l -3.156 0 c -0.492 0 -0.875 0.387 -0.875 0.875 l 0 0.25 c 0 0.492 0.383 0.875 0.875 0.875 l 3.156 0 l 0 2 l -3.156 0 c -0.492 0 -0.875 0.387 -0.875 0.875 l 0 0.25 c 0 0.492 0.383 0.875 0.875 0.875 l 3.156 0 l 0 2.688 c 0 2.398 1.914 4.316 4.313 4.316 l 1.656 0 l 0 3.125 c 0 0.488 0.383 0.875 0.875 0.875 l 0.25 0 c 0.492 0 0.875 -0.387 0.875 -0.875 l 0 -3.125 l 2 0 l 0 3.125 c 0 0.488 0.383 0.875 0.875 0.875 l 0.25 0 c 0.492 0 0.875 -0.387 0.875 -0.875 l 0 -3.125 l 2 0 l 0 3.125 c 0 0.488 0.383 0.875 0.875 0.875 l 0.25 0 c 0.492 0 0.875 -0.387 0.875 -0.875 l 0 -3.125 l 1.688 0 c 2.398 0 4.313 -1.914 4.313 -4.316 l 0 -2.688 l 3.125 0 c 0.492 0 0.875 -0.383 0.875 -0.875 l 0 -0.25 c 0 -0.488 -0.383 -0.875 -0.875 -0.875 l -3.125 0 l 0 -2 l 3.125 0 c 0.492 0 0.875 -0.383 0.875 -0.875 l 0 -0.25 c 0 -0.488 -0.383 -0.875 -0.875 -0.875 l -3.125 0 l 0 -2 l 3.125 0 c 0.492 0 0.875 -0.383 0.875 -0.875 l 0 -0.25 c 0 -0.488 -0.383 -0.875 -0.875 -0.875 l -3.125 0 l 0 -0.688 c 0 -2.398 -1.914 -4.313 -4.313 -4.313 l -1.688 0 l 0 -3.125 c 0 -0.492 -0.383 -0.875 -0.875 -0.875 l -0.25 0 c -0.492 0 -0.875 0.383 -0.875 0.875 l 0 3.125 l -2 0 l 0 -3.125 c 0 -0.492 -0.383 -0.875 -0.875 -0.875 l -0.25 0 c -0.492 0 -0.875 0.383 -0.875 0.875 l 0 3.125 l -2 0 l 0 -3.125 c 0 -0.492 -0.383 -0.875 -0.875 -0.875 m -1.594 6 l 10.938 0 c 1.961 0 3.531 1.57 3.531 3.531 l 0 10.938 c 0 1.961 -1.57 3.531 -3.531 3.531 l -10.938 0 c -1.961 0 -3.5 -1.57 -3.5 -3.531 l 0 -10.938 c 0 -1.961 1.539 -3.531 3.5 -3.531 m 0 0" fill="#f2f2f2" stroke="none" fill-rule="nonzero" fill-opacity="1"/><path d="m 19.762 17 c -1.527 0 -2.746 1.219 -2.746 2.746 l 0 8.5 c 0 1.527 1.219 2.746 2.746 2.746 l 8.5 0 c 1.527 0 2.746 -1.219 2.746 -2.746 l 0 -8.5 c 0 -1.527 -1.219 -2.746 -2.746 -2.746 m -8.5 0" fill="#f2f2f2" stroke="none" fill-rule="nonzero" fill-opacity="1"/></g></g></g></g><g><g transform="translate(0,-1004.3622)"><path d="m 1 1043.36 0 4 c 0 2.216 1.784 4 4 4 l 38 0 c 2.216 0 4 -1.784 4 -4 l 0 -4 c 0 2.216 -1.784 4 -4 4 l -38 0 c -2.216 0 -4 -1.784 -4 -4 z" opacity="0.1"/></g></g></svg>
